public/cloud-icons/azure/office-365/o365-api-sharepoint.svg

<?xml version="1.0" encoding="UTF-8" standalone="no"?>
<!-- Generated by Microsoft Visio, SVG Export O365 - API SharePoint.svg Page-1 -->

<svg
   xmlns:dc="http://purl.org/dc/elements/1.1/"
   xmlns:cc="http://creativecommons.org/ns#"
   xmlns:rdf="http://www.w3.org/1999/02/22-rdf-syntax-ns#"
   xmlns:svg="http://www.w3.org/2000/svg"
   xmlns="http://www.w3.org/2000/svg"
   xmlns:sodipodi="http://sodipodi.sourceforge.net/DTD/sodipodi-0.dtd"
   xmlns:inkscape="http://www.inkscape.org/namespaces/inkscape"
   width="0.78739941in"
   height="0.78739941in"
   viewBox="0 0 56.692756 56.692898"
   xml:space="preserve"
   class="st7"
   version="1.1"
   id="svg59"
   sodipodi:docname="O365 - API SharePoint.svg"
   style="font-size:12px;overflow:visible;color-interpolation-filters:sRGB;fill:none;fill-rule:evenodd;stroke-linecap:square;stroke-miterlimit:3"
   inkscape:version="0.92.5 (2060ec1f9f, 2020-04-08)"><metadata
   id="metadata65"><rdf:RDF><cc:Work
       rdf:about=""><dc:format>image/svg+xml</dc:format><dc:type
         rdf:resource="http://purl.org/dc/dcmitype/StillImage" /></cc:Work></rdf:RDF></metadata><defs
   id="defs63" /><sodipodi:namedview
   pagecolor="#ffffff"
   bordercolor="#666666"
   borderopacity="1"
   objecttolerance="10"
   gridtolerance="10"
   guidetolerance="10"
   inkscape:pageopacity="0"
   inkscape:pageshadow="2"
   inkscape:window-width="640"
   inkscape:window-height="480"
   id="namedview61"
   showgrid="false"
   inkscape:zoom="1.8365233"
   inkscape:cx="37.795184"
   inkscape:cy="18.897555"
   inkscape:window-x="0"
   inkscape:window-y="0"
   inkscape:window-maximized="0"
   inkscape:current-layer="svg59" />
	<style
   type="text/css"
   id="style2">
	<![CDATA[
		.st1 {fill:#1b75bc;stroke:none;stroke-width:0.75}
		.st2 {fill:#ffffff;stroke:none;stroke-width:0.75}
		.st3 {fill:#ffffff;stroke:none;stroke-linecap:round;stroke-linejoin:round;stroke-width:0.75}
		.st4 {fill:#ffffff;stroke:none;stroke-linecap:butt;stroke-width:7.2}
		.st5 {fill:none;stroke:none;stroke-linecap:butt;stroke-width:0.75}
		.st6 {fill:#1b75bc;font-family:Calibri;font-size:1.5em;font-weight:bold}
		.st7 {fill:none;fill-rule:evenodd;font-size:12px;overflow:visible;stroke-linecap:square;stroke-miterlimit:3}
	]]>
	</style>

	<g
   id="g57"
   transform="translate(-5.6693772,-5.6693014)">
		<title
   id="title4">Page-1</title>
		<g
   id="group22312-1"
   transform="translate(5.66929,-34.0157)">
			<title
   id="title6">O365 - API SharePoint.22312</title>
			<desc
   id="desc8">This package will provide stencils to visually represent Power Platform: Power Bi, Power Apps, Power Virtual Agents and/or Power Automate devices, architectures or solutions diagrams. It will provide stencils to visually represent features, systems, processes and architectures that use these technologies.</desc>
			<g
   id="group22313-2">
				<title
   id="title10">Page-1</title>
				<g
   id="group22314-3">
					<title
   id="title12">Sheet.22314</title>
					<g
   id="group22315-4">
						<title
   id="title14">rect5890</title>
						<g
   id="shape22316-5">
							<title
   id="title16">Sheet.22316</title>
							<rect
   x="0"
   y="39.685001"
   width="56.692902"
   height="56.692902"
   class="st1"
   id="rect18"
   style="fill:#1b75bc;stroke:none;stroke-width:0.75" />
						</g>
					</g>
					<g
   id="group22317-7"
   transform="translate(33.2421,-15.2271)">
						<title
   id="title22">path5892</title>
						<g
   id="shape22318-8">
							<title
   id="title24">Sheet.22318</title>
							<path
   d="M 14.63,83.2 A 4.10993,4.10993 -180 0 0 11,79.09 9.30779,9.30779 -180 0 0 5.56,74.38 4.10993,4.10993 -180 0 0 1.45,70.27 2.65937,2.65937 -180 0 0 0,70.63 V 78 a 2.65937,2.65937 -180 0 0 1.45,0.36 4.10993,4.10993 -180 0 0 3.39,-1.82 7.13194,7.13194 0 0 1 3.86,3.03 4.10993,4.10993 -180 0 0 0,7.49 A 7.13194,7.13194 0 0 1 4.84,90.09 4.10993,4.10993 -180 0 0 1.45,88.27 2.65937,2.65937 -180 0 0 0,88.64 v 7.37 A 2.65937,2.65937 -180 0 0 1.45,96.38 4.10993,4.10993 -180 0 0 5.56,92.27 9.30779,9.30779 -180 0 0 11,87.43 4.10993,4.10993 -180 0 0 14.63,83.2 Z"
   class="st2"
   id="path26"
   inkscape:connector-curvature="0"
   style="fill:#ffffff;stroke:none;stroke-width:0.75" />
						</g>
					</g>
					<g
   id="group22319-10"
   transform="translate(8.95235,-9.39996)">
						<title
   id="title30">Sheet.22319</title>
						<desc
   id="desc32">S</desc>
						<g
   id="shape22320-11">
							<title
   id="title34">Sheet.22320</title>
							<path
   d="M 0,91.74 V 62.85 l 23.16,-4.24 v 37.77 z"
   class="st3"
   id="path36"
   inkscape:connector-curvature="0"
   style="fill:#ffffff;stroke:none;stroke-width:0.75;stroke-linecap:round;stroke-linejoin:round" />
						</g>
						<g
   id="shape22321-13"
   transform="translate(6.18964,-6.82528)">
							<title
   id="title39">Sheet.22321</title>
							<rect
   x="0"
   y="72.2565"
   width="10.7843"
   height="24.121401"
   class="st4"
   id="rect41"
   style="fill:#ffffff;stroke:none;stroke-width:7.19999981;stroke-linecap:butt" />
						</g>
						<g
   id="shape22322-15"
   transform="translate(6.18673,-6.82327)">
							<title
   id="title44">Sheet.22322</title>
							<desc
   id="desc46">S</desc>
							<rect
   x="0"
   y="72.256401"
   width="20.101299"
   height="24.121599"
   class="st5"
   id="rect48"
   style="fill:none;stroke:none;stroke-width:0.75;stroke-linecap:butt" />
							<text
   x="0"
   y="89.720001"
   class="st6"
   id="text50"
   style="font-weight:bold;font-size:18px;font-family:Calibri;fill:#1b75bc">S</text>
						</g>
					</g>
				</g>
			</g>
		</g>
	</g>
</svg>

<svg xmlns="http://www.w3.org/2000/svg" xml:space="preserve" width="75.59" height="75.59" style="font-size:12px;overflow:visible;color-interpolation-filters:sRGB;fill-rule:evenodd;stroke-linecap:square;stroke-miterlimit:3" viewBox="0 0 56.693 56.693"><g transform="translate(-5.67 -5.67)"><title>Page-1</title><g transform="translate(5.67 -34.016)"><title>O365 - API SharePoint.22312</title><desc>This package will provide stencils to visually represent Power Platform: Power Bi, Power Apps, Power Virtual Agents and/or Power Automate devices, architectures or solutions diagrams. It will provide stencils to visually represent features, systems, processes and architectures that use these technologies.</desc><title>Page-1</title><title>Sheet.22314</title><title>rect5890</title><title>Sheet.22316</title><path d="M0 39.685h56.693v56.693H0z" style="fill:#1b75bc;stroke:none;stroke-width:.75"/><g transform="translate(33.242 -15.227)"><title>path5892</title><title>Sheet.22318</title><path d="M14.63 83.2A4.11 4.11-180 0 0 11 79.09a9.3 9.3-180 0 0-5.44-4.71 4.11 4.11-180 0 0-4.11-4.11 2.66 2.66-180 0 0-1.45.36V78a2.66 2.66-180 0 0 1.45.36 4.11 4.11-180 0 0 3.39-1.82 7.13 7.13 0 0 1 3.86 3.03 4.11 4.11-180 0 0 0 7.49 7.13 7.13 0 0 1-3.86 3.03 4.11 4.11-180 0 0-3.39-1.82 2.66 2.66-180 0 0-1.45.37v7.37a2.66 2.66-180 0 0 1.45.37 4.11 4.11-180 0 0 4.11-4.11A9.3 9.3-180 0 0 11 87.43a4.11 4.11-180 0 0 3.63-4.23" style="fill:#fff;stroke:none;stroke-width:.75"/></g><g transform="translate(8.952 -9.4)"><title>Sheet.22319</title><desc>S</desc><title>Sheet.22320</title><path d="M0 91.74V62.85l23.16-4.24v37.77z" style="fill:#fff;stroke:none;stroke-width:.75;stroke-linecap:round;stroke-linejoin:round"/><g transform="translate(6.19 -6.825)"><title>Sheet.22321</title><path d="M0 72.257h10.784v24.121H0z" style="fill:#fff;stroke:none;stroke-width:7.19999981;stroke-linecap:butt"/></g><g transform="translate(6.187 -6.823)"><title>Sheet.22322</title><desc>S</desc><path d="M0 72.256h20.101v24.122H0z" style="fill:none;stroke:none;stroke-width:.75;stroke-linecap:butt"/><text y="89.72" style="font-weight:700;font-size:18px;font-family:Calibri;fill:#1b75bc">S</text></g></g></g></g></svg>
